lib/radiotmp/nrk-hardware-microphone-expressive.svg

<svg width="24" height="24" viewBox="0 0 24 24" fill="none" xmlns="http://www.w3.org/2000/svg">
<path fill-rule="evenodd" clip-rule="evenodd" d="M12 14C9.79086 14 8 12.2091 8 10V6C8 3.79086 9.79086 2 12 2C14.2091 2 16 3.79086 16 6V10C16 12.2091 14.2091 14 12 14ZM10 6C10 4.89543 10.8954 4 12 4C13.1046 4 14 4.89543 14 6V10C14 11.1046 13.1046 12 12 12C10.8954 12 10 11.1046 10 10V6Z" fill="black"/>
<path d="M6 13C6 12.4477 5.55228 12 5 12C4.44772 12 4 12.4477 4 13V15C4 16.6569 5.34315 18 7 18H11V20H9C8.44772 20 8 20.4477 8 21C8 21.5523 8.44772 22 9 22H15C15.5523 22 16 21.5523 16 21C16 20.4477 15.5523 20 15 20H13V18H17C18.6569 18 20 16.6569 20 15V13C20 12.4477 19.5523 12 19 12C18.4477 12 18 12.4477 18 13V15C18 15.5523 17.5523 16 17 16H7C6.44772 16 6 15.5523 6 15V13Z" fill="black"/>
</svg>

<svg xmlns="http://www.w3.org/2000/svg" viewBox="0 0 24 24"><path fill="#000" fill-rule="evenodd" d="M12 14a4 4 0 0 1-4-4V6a4 4 0 1 1 8 0v4a4 4 0 0 1-4 4Zm-2-8a2 2 0 1 1 4 0v4a2 2 0 1 1-4 0V6Z" clip-rule="evenodd"/><path fill="#000" d="M6 13a1 1 0 1 0-2 0v2a3 3 0 0 0 3 3h4v2H9a1 1 0 1 0 0 2h6a1 1 0 1 0 0-2h-2v-2h4a3 3 0 0 0 3-3v-2a1 1 0 1 0-2 0v2a1 1 0 0 1-1 1H7a1 1 0 0 1-1-1v-2Z"/></svg>
